styles/2/Numix/256x256/places/custom-folder-copy.svg

<?xml version="1.0" encoding="UTF-8" standalone="no"?>
<svg
   xmlns:dc="http://purl.org/dc/elements/1.1/"
   xmlns:cc="http://creativecommons.org/ns#"
   xmlns:rdf="http://www.w3.org/1999/02/22-rdf-syntax-ns#"
   xmlns:svg="http://www.w3.org/2000/svg"
   xmlns="http://www.w3.org/2000/svg"
   xmlns:sodipodi="http://sodipodi.sourceforge.net/DTD/sodipodi-0.dtd"
   xmlns:inkscape="http://www.inkscape.org/namespaces/inkscape"
   width="256"
   height="256"
   viewBox="0 0 256 256"
   id="svg2"
   version="1.1"
   inkscape:version="0.91 r"
   sodipodi:docname="custom-folder-copy.svg">
  <metadata
     id="metadata20">
    <rdf:RDF>
      <cc:Work
         rdf:about="">
        <dc:format>image/svg+xml</dc:format>
        <dc:type
           rdf:resource="http://purl.org/dc/dcmitype/StillImage" />
      </cc:Work>
    </rdf:RDF>
  </metadata>
  <defs
     id="defs18" />
  <sodipodi:namedview
     pagecolor="#ffffff"
     bordercolor="#666666"
     borderopacity="1"
     objecttolerance="10"
     gridtolerance="10"
     guidetolerance="10"
     inkscape:pageopacity="0"
     inkscape:pageshadow="2"
     inkscape:window-width="1366"
     inkscape:window-height="747"
     id="namedview16"
     showgrid="true"
     inkscape:zoom="1.3037281"
     inkscape:cx="-87.534235"
     inkscape:cy="36.699258"
     inkscape:window-x="0"
     inkscape:window-y="21"
     inkscape:window-maximized="1"
     inkscape:current-layer="svg2">
    <inkscape:grid
       type="xygrid"
       id="grid3784" />
  </sodipodi:namedview>
  <path
     style="opacity:1;fill:replacecolour1;fill-opacity:1;stroke:none"
     d="m 36,31.000005 c -5.85566,0 -12,6 -12,12 l 0,4 -12,0 c -5.8804,0 -12,5.98132 -12,12 L 0,149 c 0,8 4,12 12,12 l 137,0 c 6.27045,0 12,-5.43338 12,-12 l 0,-80.999995 c 0,-6.01972 -5.82017,-12 -12,-12 l -12,0 0,-13 c 0,-5.84462 -5.81289,-12 -12,-12 z"
     id="path6-6-7"
     inkscape:connector-curvature="0"
     sodipodi:nodetypes="ssccssssscccsss" />
  <path
     sodipodi:nodetypes="sscsssssssscsssssscssssssss"
     inkscape:connector-curvature="0"
     style="opacity:1;fill:replacecolour3;fill-opacity:1.;stroke:none"
     d="m 36,31.000005 c -5.85566,0 -12,6 -12,12 l 0,4 -12,0 c -5.8804,0 -12,5.98132 -12,12 L 0,149 c 0,8 4,12 12,12 l 137,0 c 6.27045,0 12,-5.43338 12,-12 l 0,-80.999995 c 0,-6.01972 -5.82017,-12 -12,-12 l -12,0 0,-13 c 0,-5.84462 -5.81289,-12 -12,-12 z m -24,24 75.999996,0 c 2.3607,0 4,4 4,4 l 0,5 57.000004,0 c 2.0222,0 3.99999,2.03496 3.99999,4 l 0,80.999995 c 0,2.08516 -1.91505,4 -3.99999,4 l -137,0 c -1.85718,0 -4,-1.58538 -4,-4 L 8,59.000005 c 0,-1.96962 2.06612,-4 4,-4 z"
     id="path3778-8" />
  <path
     style="opacity:1;fill-opacity:0.10196079;stroke:none;fill:#000000"
     d="m 36,31 c -5.85566,0 -12,6 -12,12 l 0,4 -12,0 C 6.1196,47 0,52.98132 0,59 l 0,90 c 0,8 4,12 12,12 l 137,0 c 0.78381,0 1.55573,-0.0886 2.3125,-0.25 C 156.60988,159.62024 161,154.74579 161,149 l 0,-81 c 0,-0.376233 -0.0184,-0.750526 -0.0625,-1.125 -0.57378,-4.868162 -4.77752,-9.454426 -9.65625,-10.59375 -0.37529,-0.08764 -0.7429,-0.173479 -1.125,-0.21875 C 149.77415,56.017229 149.38624,56 149,56 l -12,0 0,-13 c 0,-5.84462 -5.81289,-12 -12,-12 l -89,0 z"
     id="path3779"
     inkscape:connector-curvature="0" />
  <path
     style="fill:replacecolour1;fill-opacity:1;stroke:none"
     d="m 132,95.999995 c -5.85566,0 -12,5.999995 -12,11.999995 l 0,4 -12,0 c -5.8804,0 -12.000005,5.98132 -12.000005,12 l 0,90.00001 c 0,8 4,12 12.000005,12 l 137,0 c 6.27046,0 12,-5.43338 12,-12 l 0,-81 c 0,-6.01973 -5.82016,-12.00001 -12,-12.00001 l -12,0 0,-13 c 0,-5.84462 -5.81289,-11.999995 -12,-11.999995 z"
     id="path6-6"
     inkscape:connector-curvature="0"
     sodipodi:nodetypes="ssccssssscccsss" />
  <path
     sodipodi:nodetypes="sscsssssssscsssssscssssssss"
     inkscape:connector-curvature="0"
     style="fill:replacecolour3;fill-opacity:1.;stroke:none"
     d="m 132,95.999995 c -5.85566,0 -12,5.999995 -12,11.999995 l 0,4 -12,0 c -5.8804,0 -12.000005,5.98132 -12.000005,12 l 0,90.00001 c 0,8 4,12 12.000005,12 l 137,0 c 6.27046,0 12,-5.43338 12,-12 l 0,-81 c 0,-6.01973 -5.82016,-12.00001 -12,-12.00001 l -12,0 0,-13 c 0,-5.84462 -5.81289,-11.999995 -12,-11.999995 z m -24,23.999995 76,0 c 2.3607,0 4,4 4,4 l 0,5 57,0 c 2.0222,0 4,2.03497 4,4.00001 l 0,81 c 0,2.08516 -1.91506,4 -4,4 l -137,0 c -1.85718,0 -4,-1.58538 -4,-4 l 0,-90.00001 c 0,-1.96962 2.06612,-4 4,-4 z"
     id="path3778" />
</svg>

<?xml version="1.0" encoding="UTF-8" standalone="no"?>
<svg
   xmlns:dc="http://purl.org/dc/elements/1.1/"
   xmlns:cc="http://creativecommons.org/ns#"
   xmlns:rdf="http://www.w3.org/1999/02/22-rdf-syntax-ns#"
   xmlns:svg="http://www.w3.org/2000/svg"
   xmlns="http://www.w3.org/2000/svg"
   xmlns:sodipodi="http://sodipodi.sourceforge.net/DTD/sodipodi-0.dtd"
   xmlns:inkscape="http://www.inkscape.org/namespaces/inkscape"
   width="256"
   height="256"
   viewBox="0 0 256 256"
   id="svg2"
   version="1.1"
   inkscape:version="0.48.5 r10040"
   sodipodi:docname="folder-copy.svg">
  <metadata
     id="metadata20">
    <rdf:RDF>
      <cc:Work
         rdf:about="">
        <dc:format>image/svg+xml</dc:format>
        <dc:type
           rdf:resource="http://purl.org/dc/dcmitype/StillImage" />
      </cc:Work>
    </rdf:RDF>
  </metadata>
  <defs
     id="defs18" />
  <sodipodi:namedview
     pagecolor="#ffffff"
     bordercolor="#666666"
     borderopacity="1"
     objecttolerance="10"
     gridtolerance="10"
     guidetolerance="10"
     inkscape:pageopacity="0"
     inkscape:pageshadow="2"
     inkscape:window-width="1280"
     inkscape:window-height="969"
     id="namedview16"
     showgrid="true"
     inkscape:zoom="1.3037281"
     inkscape:cx="85.047763"
     inkscape:cy="36.699258"
     inkscape:window-x="0"
     inkscape:window-y="0"
     inkscape:window-maximized="1"
     inkscape:current-layer="svg2">
    <inkscape:grid
       type="xygrid"
       id="grid3784" />
  </sodipodi:namedview>
  <path
     style="opacity:1;fill:replacecolour1;fill-opacity:1;stroke:none"
     d="m 36,31.000005 c -5.85566,0 -12,6 -12,12 l 0,4 -12,0 c -5.8804,0 -12,5.98132 -12,12 L 0,149 c 0,8 4,12 12,12 l 137,0 c 6.27045,0 12,-5.43338 12,-12 l 0,-80.999995 c 0,-6.01972 -5.82017,-12 -12,-12 l -12,0 0,-13 c 0,-5.84462 -5.81289,-12 -12,-12 z"
     id="path6-6-7"
     inkscape:connector-curvature="0"
     sodipodi:nodetypes="ssccssssscccsss" />
  <path
     sodipodi:nodetypes="sscsssssssscsssssscssssssss"
     inkscape:connector-curvature="0"
     style="opacity:1;fill:replacecolour3;fill-opacity:1.;stroke:none"
     d="m 36,31.000005 c -5.85566,0 -12,6 -12,12 l 0,4 -12,0 c -5.8804,0 -12,5.98132 -12,12 L 0,149 c 0,8 4,12 12,12 l 137,0 c 6.27045,0 12,-5.43338 12,-12 l 0,-80.999995 c 0,-6.01972 -5.82017,-12 -12,-12 l -12,0 0,-13 c 0,-5.84462 -5.81289,-12 -12,-12 z m -24,24 75.999996,0 c 2.3607,0 4,4 4,4 l 0,5 57.000004,0 c 2.0222,0 3.99999,2.03496 3.99999,4 l 0,80.999995 c 0,2.08516 -1.91505,4 -3.99999,4 l -137,0 c -1.85718,0 -4,-1.58538 -4,-4 L 8,59.000005 c 0,-1.96962 2.06612,-4 4,-4 z"
     id="path3778-8" />
  <path
     style="opacity:1;fill:replacecolour3;fill-opacity:0.10196079;stroke:none"
     d="M 36 31 C 30.14434 31 24 37 24 43 L 24 47 L 12 47 C 6.1196 47 0 52.98132 0 59 L 0 149 C 0 157 4 161 12 161 L 149 161 C 149.78381 161 150.55573 160.91139 151.3125 160.75 C 156.60988 159.62024 161 154.74579 161 149 L 161 68 C 161 67.623767 160.98164 67.249474 160.9375 66.875 C 160.36372 62.006838 156.15998 57.420574 151.28125 56.28125 C 150.90596 56.19361 150.53835 56.107771 150.15625 56.0625 C 149.77415 56.017229 149.38624 56 149 56 L 137 56 L 137 43 C 137 37.15538 131.18711 31 125 31 L 36 31 z "
     id="path3779" />
  <path
     style="fill:replacecolour1;fill-opacity:1;stroke:none"
     d="m 132,95.999995 c -5.85566,0 -12,5.999995 -12,11.999995 l 0,4 -12,0 c -5.8804,0 -12.000005,5.98132 -12.000005,12 l 0,90.00001 c 0,8 4,12 12.000005,12 l 137,0 c 6.27046,0 12,-5.43338 12,-12 l 0,-81 c 0,-6.01973 -5.82016,-12.00001 -12,-12.00001 l -12,0 0,-13 c 0,-5.84462 -5.81289,-11.999995 -12,-11.999995 z"
     id="path6-6"
     inkscape:connector-curvature="0"
     sodipodi:nodetypes="ssccssssscccsss" />
  <path
     sodipodi:nodetypes="sscsssssssscsssssscssssssss"
     inkscape:connector-curvature="0"
     style="fill:replacecolour3;fill-opacity:1.;stroke:none"
     d="m 132,95.999995 c -5.85566,0 -12,5.999995 -12,11.999995 l 0,4 -12,0 c -5.8804,0 -12.000005,5.98132 -12.000005,12 l 0,90.00001 c 0,8 4,12 12.000005,12 l 137,0 c 6.27046,0 12,-5.43338 12,-12 l 0,-81 c 0,-6.01973 -5.82016,-12.00001 -12,-12.00001 l -12,0 0,-13 c 0,-5.84462 -5.81289,-11.999995 -12,-11.999995 z m -24,23.999995 76,0 c 2.3607,0 4,4 4,4 l 0,5 57,0 c 2.0222,0 4,2.03497 4,4.00001 l 0,81 c 0,2.08516 -1.91506,4 -4,4 l -137,0 c -1.85718,0 -4,-1.58538 -4,-4 l 0,-90.00001 c 0,-1.96962 2.06612,-4 4,-4 z"
     id="path3778" />
</svg>
